!!!OTL: Die Ueberbotene.
!!!OTL-incipit: LIEBER SCHATZ WOHL IMMERDAR WILL ICH VON DIE SCHEIDEN
!!!ARE: Europa, Mitteleuropa, Deutschland, Hessen
!!!SCT: Z1342
!!!TXL: @@DE
!!!YEM: Copyright 1995, estate of Helmut Schaffrath.
**kern	**text
*ICvox	*
*M2/4	*
*k[f#c#g#]	*
*A:	*
!LO:TX:a:t=Aus Heſſen.	!
{8.a	Lieber
16b/	.
8cc#/	Schatʒ,
8a	wohl
=1	=1
8b/	im-
8g#	-mer-
4e	-dar
=2	=2
8.f#	will
16g#	ich
8a	von
8f#	dir
=3	=3
8.eL	ſchei-
16dJ	.
4c#}	-den;
=4	=4
{8d	kannſt
8f#	du
8e	mir
8c#	aus
=5	=5
8d	dei-
8f#	-nem
4e	Haar
=6	=6
8.a	ſpin-
16b/	-nen
8cc#/	kla-
8a	-re
=7	=7
8g#L	Sei-
8bJ	.
4a}	-den;
=8	=8
!LO:TX:a:t=Alle.	!
{8d	kannſt
8f#	du
8e	mir
8c#	aus
=9	=9
8d	dei-
8f#	-nem
4e	Haar
=10	=10
8.a	ſpin-
16b/	-nen
8cc#/	kla-
8a	-re
=11	=11
(8g#L	Sei-
8bJ)	.
4a}	-den!
==	==
!!!AGN: Zech -, Schalks - Lied
!!!ONB: ESAC (Essen Associative Code) Database: ZUCCAL
!!!AMT: simple duple
!!!AIN: vox
!!!EED: Helmut Schaffrath
!!!EEV: 1.0
!!!GTL: VIII. Zech- und Schalks-Lieder.
!!!URL-scan: https://www.digitale-sammlungen.de/de/view/bsb11160573?page=626
!!!ENC: Anna Maria Matuszewska
!!!EEV: 2025/02/07
*-	*-
